images/EXPERIENCIA-TOGGLE/INDICADORES ICON.svg

<svg width="29" height="29" viewBox="0 0 29 29" fill="none" xmlns="http://www.w3.org/2000/svg">
<path d="M0 13.5967C0.0717756 13.0749 0.126174 12.5509 0.217593 12.0329C1.2353 6.28237 5.4285 1.72103 11.1335 0.426846C16.7426 -0.845438 21.5523 0.740953 25.4229 4.99197C27.4908 7.2632 28.6566 9.99125 28.9309 13.0477C29.3517 17.742 27.8504 21.7657 24.4536 25.0397C22.2195 27.1931 19.5154 28.4292 16.4464 28.8724C16.1027 28.9222 15.7574 28.9577 15.4129 29C14.8084 29 14.204 29 13.5996 29C13.5369 28.9841 13.4757 28.9577 13.4122 28.9532C12.183 28.8656 10.9786 28.6398 9.82344 28.2117C4.55511 26.2621 1.35845 22.5261 0.229682 17.0277C0.12013 16.4946 0.0747977 15.9487 0 15.4088C0 14.8048 0 14.2007 0 13.5967ZM28.0439 14.2204C27.9381 6.83281 21.7518 0.870824 14.2954 0.971247C6.81642 1.07092 0.831086 7.2413 0.976148 14.7821C1.1197 22.2656 7.27729 28.1845 14.7994 28.026C22.2618 27.8689 28.1746 21.7091 28.0439 14.2204Z" fill="white"/>
<path d="M14.7767 27.067C7.77519 27.172 2.03163 21.6472 1.9319 14.7104C1.83217 7.76607 7.3808 2.03815 14.3037 1.93773C21.2894 1.83655 26.9884 7.40666 27.0798 14.4235C27.1682 21.2213 21.5788 26.9651 14.7767 27.067ZM2.94204 14.9875C2.99267 18.3657 4.88301 22.6016 9.11853 24.7475C13.3556 26.8941 17.517 26.5808 21.3763 23.8135C24.3538 21.6781 25.8551 18.6654 26.1059 14.9875C25.9458 14.9875 25.8422 14.9875 25.7395 14.9875C24.4649 14.9875 23.1903 14.9883 21.9157 14.9875C20.8988 14.9868 20.3888 14.5443 20.2249 13.5446C20.1077 12.8333 19.8667 12.1658 19.4701 11.5286C19.396 11.6396 19.3379 11.7241 19.2827 11.8102C18.7667 12.6106 18.2695 13.4245 17.7301 14.2083C17.276 14.8675 16.8182 15.5342 16.2817 16.1246C15.0767 17.4513 12.9385 17.0534 12.2683 15.4119C11.8634 14.4212 12.1119 13.312 13.0118 12.6128C14.0083 11.8389 15.0646 11.1412 16.1042 10.4231C16.5447 10.1189 17.0086 9.84779 17.483 9.54803C17.3954 9.49215 17.3349 9.44836 17.2707 9.41211C13.8217 7.48141 9.36558 9.66582 8.78231 13.5725C8.64178 14.5118 8.09856 14.9845 7.15112 14.9868C6.26337 14.989 5.37637 14.9875 4.48862 14.9875C3.97939 14.9875 3.47016 14.9875 2.94204 14.9875ZM14.0068 2.94348C11.5355 2.95329 8.50428 4.1546 6.7182 5.94712C7.84847 7.07745 8.97875 8.20779 10.1241 9.35322C11.2257 8.42147 12.532 7.89141 14.0068 7.75399C14.0068 6.14193 14.0068 4.55252 14.0068 2.94348ZM5.94529 6.67803C4.07988 8.75747 3.06142 11.1888 2.91711 13.9916C2.98964 14.0052 3.01684 14.015 3.0448 14.015C4.4516 14.0165 5.85765 14.0195 7.26445 14.015C7.60897 14.0135 7.76083 13.8587 7.81523 13.4963C7.9958 12.2942 8.47481 11.2235 9.23488 10.2759C9.28625 10.2125 9.33159 10.1438 9.36332 10.1C8.21793 8.95303 7.09219 7.82572 5.94529 6.67803ZM15.0147 2.9178C15.0147 4.55554 15.0147 6.1525 15.0147 7.75701C16.213 7.86801 17.2972 8.24176 18.2869 8.89263C18.3549 8.93718 18.503 8.91679 18.5846 8.873C19.0069 8.64421 19.3953 8.31501 19.8426 8.18362C20.2075 8.07716 20.447 7.88235 20.6895 7.63922C20.9759 7.35154 21.2614 7.06311 21.5508 6.77845C21.8168 6.51569 22.0872 6.25745 22.3743 5.97959C20.2551 4.08664 17.8313 3.07108 15.0147 2.9178ZM23.04 6.64858C22.4431 7.2481 21.8727 7.82421 21.2985 8.3958C21.0869 8.60646 20.8565 8.79598 20.8565 9.13954C20.8565 9.24147 20.7779 9.34869 20.722 9.44534C20.5512 9.7383 20.3881 10.0373 20.1939 10.3144C20.0541 10.5138 20.0602 10.658 20.1969 10.8633C20.7152 11.6418 21.034 12.5041 21.1867 13.426C21.266 13.907 21.3869 14.0165 21.8742 14.0165C23.1858 14.0173 24.4966 14.0173 25.8082 14.0165C25.8982 14.0165 25.9881 14.0059 26.0984 13.9991C25.9405 11.1842 24.9326 8.76049 23.04 6.64858ZM19.5736 9.50876C19.557 9.49291 19.5396 9.47629 19.523 9.46044C19.4912 9.47403 19.4565 9.48309 19.4278 9.50121C17.7089 10.6081 15.9871 11.7098 14.2765 12.8295C13.9638 13.0342 13.6744 13.2886 13.4198 13.5627C12.9959 14.0173 12.9468 14.6825 13.2505 15.2178C13.549 15.7441 14.1277 16.0167 14.7344 15.9306C15.2565 15.8566 15.5965 15.5213 15.8798 15.1242C16.4767 14.2883 17.0758 13.454 17.6379 12.5955C18.3035 11.5791 18.9306 10.5379 19.5736 9.50876Z" fill="white"/>
<path d="M10.8351 20.7864C11.3579 21.3066 11.8604 21.7906 12.3409 22.295C12.4534 22.4136 12.56 22.6099 12.5441 22.7571C12.529 22.9006 12.3764 23.1014 12.2427 23.1415C12.0953 23.186 11.8551 23.1309 11.7357 23.0267C11.3753 22.7111 11.0534 22.3509 10.6417 22.024C10.6417 22.2407 10.65 22.4581 10.6402 22.6741C10.6228 23.0493 10.3455 23.2713 10.0206 23.1739C9.79473 23.106 9.67838 22.9451 9.67838 22.7111C9.67611 21.4282 9.67384 20.1461 9.67989 18.864C9.6814 18.5703 9.88841 18.3694 10.1528 18.3687C10.4135 18.3679 10.6152 18.5665 10.6394 18.8595C10.6485 18.972 10.6424 19.086 10.6432 19.1985C10.6432 19.3095 10.6432 19.4212 10.6432 19.6138C10.99 19.2672 11.2854 18.972 11.5816 18.6768C11.9336 18.3257 12.192 18.2758 12.4285 18.5144C12.6642 18.7515 12.6144 19.012 12.2638 19.3616C11.7976 19.8267 11.3307 20.2926 10.8351 20.7864Z" fill="white"/>
<path d="M14.5062 21.2591C14.5062 21.7468 14.5085 22.1795 14.5055 22.6122C14.5032 22.9738 14.3264 23.1898 14.034 23.1981C13.7333 23.2064 13.5422 22.9806 13.5414 22.6069C13.5399 21.3912 13.5399 20.1763 13.5414 18.9607C13.5422 18.5469 13.7122 18.3679 14.1194 18.3657C14.4768 18.3634 14.8394 18.3453 15.1915 18.3929C15.9667 18.4971 16.4744 19.1426 16.4328 19.9219C16.3951 20.6361 15.8156 21.2077 15.0699 21.2576C14.8938 21.2696 14.7155 21.2591 14.5062 21.2591ZM14.5183 20.2994C14.8545 20.2707 15.2225 20.4142 15.3993 20.0396C15.4627 19.906 15.4484 19.6712 15.3683 19.5466C15.1651 19.231 14.8266 19.3465 14.5183 19.3359C14.5183 19.6674 14.5183 19.9641 14.5183 20.2994Z" fill="white"/>
<path d="M18.3693 20.8106C18.3693 21.4139 18.3715 22.0172 18.3685 22.6205C18.367 22.9814 18.1842 23.1973 17.8918 23.1981C17.6001 23.1988 17.4052 22.9784 17.4045 22.6242C17.4014 21.3988 17.4014 20.1733 17.4045 18.9471C17.4052 18.5937 17.5994 18.3687 17.888 18.3672C18.1781 18.3657 18.367 18.5861 18.3685 18.9425C18.3715 19.5655 18.3693 20.1884 18.3693 20.8106Z" fill="white"/>
</svg>

<svg width="29" height="29" fill="none" xmlns="http://www.w3.org/2000/svg"><path d="M0 13.597c.072-.522.126-1.046.218-1.564C1.235 6.283 5.428 1.72 11.133.427c5.61-1.272 10.42.314 14.29 4.565 2.068 2.271 3.234 5 3.508 8.056.42 4.694-1.08 8.718-4.477 11.992-2.235 2.153-4.939 3.39-8.008 3.832-.343.05-.689.086-1.033.128H13.6c-.063-.016-.124-.042-.188-.047-1.229-.087-2.433-.313-3.589-.741-5.268-1.95-8.465-5.686-9.593-11.184-.11-.533-.155-1.08-.23-1.62v-1.811Zm28.044.623C27.938 6.833 21.752.87 14.295.971 6.816 1.071.831 7.241.976 14.782 1.12 22.266 7.277 28.184 14.8 28.026c7.463-.157 13.376-6.317 13.245-13.806Z" fill="#fff"/><path d="M14.777 27.067c-7.002.105-12.745-5.42-12.845-12.357-.1-6.944 5.449-12.672 12.372-12.772 6.985-.101 12.684 5.469 12.776 12.486.088 6.797-5.501 12.541-12.303 12.643ZM2.942 14.987c.05 3.379 1.941 7.615 6.177 9.76 4.237 2.147 8.398 1.834 12.257-.933 2.978-2.136 4.48-5.149 4.73-8.826H21.916c-1.017-.001-1.527-.444-1.691-1.443a5.423 5.423 0 0 0-.755-2.016c-.074.11-.132.195-.187.281-.516.8-1.014 1.614-1.553 2.398-.454.66-.912 1.326-1.448 1.917-1.205 1.326-3.344.928-4.014-.713-.405-.99-.156-2.1.744-2.8.996-.773 2.053-1.47 3.092-2.189.44-.304.905-.575 1.379-.875-.088-.056-.148-.1-.212-.136-3.45-1.93-7.905.254-8.489 4.16-.14.94-.683 1.413-1.63 1.415-.889.002-1.776 0-2.663 0H2.942ZM14.007 2.944c-2.471.01-5.503 1.212-7.289 3.004l3.406 3.406c1.102-.932 2.408-1.462 3.883-1.599v-4.81ZM5.945 6.678c-1.865 2.08-2.884 4.51-3.028 7.314.073.013.1.023.128.023 1.407.002 2.813.005 4.22 0 .344-.002.496-.156.55-.519a6.642 6.642 0 0 1 1.42-3.22c.051-.063.097-.132.128-.176L5.945 6.678Zm9.07-3.76v4.839a7.022 7.022 0 0 1 3.272 1.136c.068.044.216.024.298-.02.422-.229.81-.558 1.258-.69.364-.106.604-.3.846-.544.287-.287.572-.576.862-.86.266-.263.536-.522.823-.8-2.119-1.892-4.543-2.908-7.36-3.061Zm8.025 3.73c-.597.6-1.167 1.176-1.741 1.748-.212.21-.442.4-.442.744 0 .101-.08.209-.135.305-.17.293-.334.592-.528.87-.14.199-.134.343.003.548a6.48 6.48 0 0 1 .99 2.563c.079.481.2.59.687.59h3.934c.09 0 .18-.01.29-.017-.157-2.815-1.165-5.239-3.058-7.35Zm-3.466 2.86-.051-.048c-.032.014-.067.023-.095.041-1.72 1.107-3.44 2.209-5.152 3.329a4.7 4.7 0 0 0-.856.733c-.424.454-.473 1.12-.17 1.655.299.526.878.799 1.484.713.523-.074.863-.41 1.146-.807.597-.836 1.196-1.67 1.758-2.529.665-1.016 1.293-2.057 1.936-3.086Z" fill="#fff"/><path d="M10.835 20.786c.523.52 1.025 1.005 1.506 1.509.112.119.219.315.203.462-.015.144-.168.344-.301.384a.624.624 0 0 1-.507-.114c-.36-.316-.683-.676-1.094-1.003 0 .217.008.434-.002.65-.017.375-.295.597-.62.5-.225-.068-.342-.229-.342-.463-.002-1.283-.004-2.565.002-3.847.001-.294.208-.495.473-.495.26-.001.462.198.486.49.01.113.003.227.004.34v.415l.939-.937c.352-.351.61-.401.846-.163.236.238.186.498-.164.848l-1.429 1.424ZM14.506 21.26c0 .487.002.92 0 1.352-.003.362-.18.578-.472.586-.3.008-.492-.217-.493-.591V18.96c.001-.414.171-.593.578-.595.358-.003.72-.02 1.072.027.776.104 1.283.75 1.242 1.529-.038.714-.617 1.286-1.363 1.336-.176.012-.354.001-.564.001Zm.012-.96c.336-.03.704.114.881-.26a.593.593 0 0 0-.03-.493c-.204-.316-.542-.2-.85-.211v.963ZM18.37 20.81c0 .604.002 1.207-.002 1.81-.001.361-.184.577-.476.578-.292 0-.487-.22-.488-.574a726.94 726.94 0 0 1 0-3.677c.001-.353.195-.578.484-.58.29-.001.479.22.48.575.004.623.001 1.246.001 1.869Z" fill="#fff"/></svg>
